X: 7484
T: Coachman's Whip, The
R: reel
M: 4/4
K: Gmajor
D3E ~G3B|d2BG dGBG|E2BE dEBE|dBAG FAGE|
DEDE ~G3B|d2BG dGBG|FGAB cdef|gedc BGGB:|
d2BG dGBG|E2BE dEBE|d2BG dGBG|FGAc BGGB|
d2BG dGBG|E2BE dEBE|FGAB cdef|gedc BGGB:|

